img/icon_rectangle2d.svg

<svg width="23" height="20" viewBox="0 0 23 20" fill="none" xmlns="http://www.w3.org/2000/svg">
<path d="M18.9101 17.2641C18.7897 17.4875 18.5577 17.625 18.3042 17.625H3.26556C3.00685 17.625 2.77013 17.4798 2.65283 17.249C2.53553 17.0184 2.55765 16.7416 2.71015 16.5323L5.71796 12.4073C5.84756 12.2281 6.05381 12.125 6.27295 12.125C6.49209 12.125 6.69902 12.2299 6.82853 12.4075L8.2233 14.32L12.2323 8.34306C12.3616 8.11602 12.5765 8 12.8042 8C13.0319 8 13.2489 8.11481 13.3761 8.30615L18.8761 16.5562C19.0175 16.7656 19.0304 17.0363 18.9101 17.2641Z" fill="#969696"/>
<path d="M20.5156 0H2.64062C1.50152 0 0.578125 0.923398 0.578125 2.0625V17.1875C0.578125 18.3262 1.50152 19.25 2.64062 19.25H20.5156C21.6547 19.25 22.5781 18.3266 22.5781 17.1875V2.0625C22.5781 0.923398 21.6543 0 20.5156 0ZM19.7465 16.1391C19.6262 16.3625 19.3941 16.5 19.1406 16.5H4.10199C3.84328 16.5 3.60656 16.3548 3.48926 16.124C3.37195 15.8934 3.39408 15.6166 3.54658 15.4073L6.55439 11.2823C6.68398 11.1031 6.89023 11 7.10938 11C7.32852 11 7.53545 11.1049 7.66496 11.2825L9.05973 13.195L13.0687 7.21806C13.198 6.99102 13.4129 6.875 13.6406 6.875C13.8684 6.875 14.0854 6.98981 14.2125 7.18115L19.7125 15.4312C19.8539 15.6406 19.8668 15.9113 19.7465 16.1391Z" fill="#E2E2E2"/>
<path d="M3.28 8C3.08267 8 2.912 7.96 2.768 7.88C2.624 7.79467 2.51467 7.68533 2.44 7.552C2.36533 7.41867 2.328 7.26933 2.328 7.104C2.328 6.944 2.368 6.78933 2.448 6.64C2.528 6.48533 2.64 6.35733 2.784 6.256L4.608 4.952C4.784 4.824 4.91733 4.67733 5.008 4.512C5.09867 4.34667 5.144 4.17867 5.144 4.008C5.144 3.82667 5.10133 3.66933 5.016 3.536C4.93067 3.39733 4.80533 3.288 4.64 3.208C4.48 3.12267 4.28267 3.08 4.048 3.08H2.6V2.4H4.128C4.50667 2.4 4.82667 2.47467 5.088 2.624C5.35467 2.768 5.55733 2.96267 5.696 3.208C5.84 3.448 5.912 3.71467 5.912 4.008C5.912 4.30133 5.84267 4.576 5.704 4.832C5.57067 5.08267 5.36 5.30667 5.072 5.504L3.256 6.768C3.20267 6.8 3.16 6.84267 3.128 6.896C3.10133 6.944 3.088 6.99467 3.088 7.048C3.088 7.128 3.11467 7.19467 3.168 7.248C3.22667 7.296 3.30667 7.32 3.408 7.32H6.048V8H3.28ZM7.02206 8V2.4H8.81406C9.4114 2.4 9.92606 2.52 10.3581 2.76C10.7954 3 11.1341 3.33067 11.3741 3.752C11.6141 4.17333 11.7341 4.656 11.7341 5.2C11.7341 5.744 11.6141 6.22667 11.3741 6.648C11.1341 7.06933 10.7954 7.4 10.3581 7.64C9.92606 7.88 9.4114 8 8.81406 8H7.02206ZM7.79006 7.32H8.82206C9.23806 7.32 9.60606 7.23467 9.92606 7.064C10.2514 6.89333 10.5074 6.65067 10.6941 6.336C10.8807 6.016 10.9741 5.63733 10.9741 5.2C10.9741 4.75733 10.8807 4.37867 10.6941 4.064C10.5074 3.74933 10.2514 3.50667 9.92606 3.336C9.60606 3.16533 9.23806 3.08 8.82206 3.08H7.79006V7.32Z" fill="black"/>
</svg>

<?xml version="1.0" encoding="utf-8"?>
<!-- Generator: Adobe Illustrator 25.2.1, SVG Export Plug-In . SVG Version: 6.00 Build 0)  -->
<svg version="1.1" id="Layer_1" xmlns="http://www.w3.org/2000/svg" xmlns:xlink="http://www.w3.org/1999/xlink" x="0px" y="0px"
	 viewBox="0 0 23 20" style="enable-background:new 0 0 23 20;" xml:space="preserve">
<style type="text/css">
	.st0{fill:#969696;}
	.st1{fill:#E2E2E2;}
</style>
<path class="st0" d="M18.9,17.3c-0.1,0.2-0.4,0.4-0.6,0.4h-15c-0.3,0-0.5-0.1-0.6-0.4c-0.1-0.2-0.1-0.5,0.1-0.7l3-4.1
	c0.1-0.2,0.3-0.3,0.6-0.3s0.4,0.1,0.6,0.3l1.4,1.9l4-6C12.4,8.1,12.6,8,12.8,8s0.4,0.1,0.6,0.3l5.5,8.3C19,16.8,19,17,18.9,17.3z"/>
<path class="st1" d="M20.5,0H2.6C1.5,0,0.6,0.9,0.6,2.1v15.1c0,1.1,0.9,2.1,2.1,2.1h17.9c1.1,0,2.1-0.9,2.1-2.1V2.1
	C22.6,0.9,21.7,0,20.5,0z M19.7,16.1c-0.1,0.2-0.4,0.4-0.6,0.4h-15c-0.3,0-0.5-0.1-0.6-0.4c-0.1-0.2-0.1-0.5,0.1-0.7l3-4.1
	C6.7,11.1,6.9,11,7.1,11c0.2,0,0.4,0.1,0.6,0.3l1.4,1.9l4-6c0.1-0.2,0.3-0.3,0.6-0.3c0.2,0,0.4,0.1,0.6,0.3l5.5,8.3
	C19.9,15.6,19.9,15.9,19.7,16.1z"/>
<path d="M3.3,8C3.1,8,2.9,8,2.8,7.9C2.6,7.8,2.5,7.7,2.4,7.6C2.4,7.4,2.3,7.3,2.3,7.1c0-0.2,0-0.3,0.1-0.5c0.1-0.2,0.2-0.3,0.3-0.4
	L4.6,5C4.8,4.8,4.9,4.7,5,4.5S5.1,4.2,5.1,4c0-0.2,0-0.3-0.1-0.5C4.9,3.4,4.8,3.3,4.6,3.2C4.5,3.1,4.3,3.1,4,3.1H2.6V2.4h1.5
	c0.4,0,0.7,0.1,1,0.2C5.4,2.8,5.6,3,5.7,3.2C5.8,3.4,5.9,3.7,5.9,4S5.8,4.6,5.7,4.8C5.6,5.1,5.4,5.3,5.1,5.5L3.3,6.8
	c-0.1,0-0.1,0.1-0.1,0.1c0,0,0,0.1,0,0.2c0,0.1,0,0.1,0.1,0.2c0.1,0,0.1,0.1,0.2,0.1H6V8H3.3z M7,8V2.4h1.8c0.6,0,1.1,0.1,1.5,0.4
	c0.4,0.2,0.8,0.6,1,1c0.2,0.4,0.4,0.9,0.4,1.4s-0.1,1-0.4,1.4c-0.2,0.4-0.6,0.8-1,1C9.9,7.9,9.4,8,8.8,8H7z M7.8,7.3h1
	c0.4,0,0.8-0.1,1.1-0.3c0.3-0.2,0.6-0.4,0.8-0.7C10.9,6,11,5.6,11,5.2c0-0.4-0.1-0.8-0.3-1.1c-0.2-0.3-0.4-0.6-0.8-0.7
	C9.6,3.2,9.2,3.1,8.8,3.1h-1V7.3z"/>
</svg>
